;FLAVOR:Marlin
;TIME:4420
;Filament used: 3.92799m
;Layer height: 0.2
;MINX:52.071
;MINY:69.04
;MINZ:0.3
;MAXX:152.21
;MAXY:125.2
;MAXZ:24.9
;POSTPROCESSED
;ChangeAtZ instances: 1
;Generated with Cura_SteamEngine 4.6.0
M140 S80
M105
M190 S80
M104 S225
M105
M109 S225
M82 ;absolute extrusion mode
G21 ;metric values
G90 ;absolute positioning
M82 ;set extruder to absolute mode
M107 ;start with the fan off
G28 X0 Y0 ;move X/Y to min endstops
G28 Z0 ;move Z to min endstops
G1 Z15.0 F250 ;move the platform down 15mm
G92 E0 ;zero the extruded length
G1 F200 E3 ;extrude 3mm of feed stock
G92 E0 ;zero the extruded length again
G1 F250
G0 Y20 F250
M117 Printing...
G5
G92 E0
G92 E0
G1 F3600 E-4.5
;LAYER_COUNT:124
;LAYER:0
M106 S25.5
M205 X10 Y10
G1 F600 Z0.375
G0 F5625 X124.87 Y71.864 Z0.375
M205 X8 Y8
;TYPE:SKIRT
G1 F600 Z0.3
G1 F3600 E0
G1 F2400 X125.494 Y71.889 E0.04362
G1 X125.662 Y71.899 E0.05537
G1 X126.488 Y71.962 E0.11323
G1 X127.004 Y72.015 E0.14946
G1 X127.17 Y72.036 E0.16115
G1 X128.122 Y72.169 E0.22829
G1 X128.78 Y72.28 E0.2749
G1 X129.407 Y72.405 E0.31955
G1 X129.642 Y72.457 E0.33637
G1 X130.301 Y72.615 E0.3837
G1 X130.445 Y72.65 E0.39405
G1 X131.016 Y72.804 E0.43536
G1 X131.184 Y72.852 E0.44756
G1 X131.868 Y73.061 E0.49752
G1 X132.476 Y73.265 E0.54231
G1 X132.674 Y73.335 E0.55698
G1 X133.2 Y73.532 E0.59621
G1 X133.364 Y73.597 E0.60853
G1 X134.165 Y73.928 E0.66907
G1 X134.708 Y74.171 E0.71062
G1 X135.67 Y74.639 E0.78534
G1 X136.214 Y74.922 E0.82817
G1 X136.816 Y75.26 E0.87639
G1 X136.971 Y75.351 E0.88894
G1 X137.637 Y75.757 E0.94342
G1 X138.15 Y76.087 E0.98603
G1 X138.38 Y76.244 E1.00548
G1 X138.924 Y76.627 E1.05195
G1 X139.397 Y76.977 E1.09305
G1 X139.545 Y77.091 E1.10609
G1 X140.319 Y77.711 E1.17536
G1 X140.808 Y78.128 E1.22025
G1 X141.27 Y78.545 E1.26372
G1 X141.389 Y78.656 E1.27508
G1 X142.003 Y79.249 E1.33471
G1 X142.361 Y79.614 E1.37042
G1 X142.472 Y79.731 E1.38168
G1 X143.203 Y80.531 E1.45737
G1 X143.371 Y80.724 E1.47524
G1 X143.704 Y81.123 E1.51154
G1 X143.803 Y81.245 E1.52252
G1 X144.216 Y81.771 E1.56923
G1 X144.546 Y82.214 E1.60781
G1 X144.629 Y82.329 E1.61772
G1 X145.062 Y82.948 E1.67048
G1 X145.401 Y83.463 E1.71354
G1 X145.485 Y83.596 E1.72453
G1 X145.868 Y84.223 E1.77585
G1 X146.147 Y84.706 E1.81481
G1 X146.223 Y84.843 E1.82575
G1 X146.709 Y85.754 E1.89787
G1 X146.985 Y86.317 E1.94166
G1 X147.046 Y86.447 E1.95169
G1 X147.309 Y87.032 E1.99649
G1 X147.547 Y87.601 E2.03957
G1 X147.887 Y88.496 E2.10644
G1 X148.092 Y89.084 E2.14994
G1 X148.458 Y90.26 E2.23596
G1 X148.602 Y90.779 E2.27358
G1 X148.639 Y90.928 E2.28431
G1 X148.796 Y91.59 E2.33183
G1 X148.924 Y92.189 E2.37461
G1 X148.955 Y92.356 E2.38647
G1 X149.086 Y93.103 E2.43944
G1 X149.181 Y93.754 E2.4854
G1 X149.297 Y94.779 E2.55744
G1 X149.348 Y95.377 E2.59936
G1 X149.384 Y95.943 E2.63898
G1 X149.402 Y96.474 E2.67609
G1 X149.411 Y97.058 E2.71688
G1 X149.41 Y97.209 E2.72743
G1 X149.401 Y97.774 E2.7669
G1 X149.397 Y97.925 E2.77745
G1 X149.367 Y98.598 E2.8245
G1 X149.323 Y99.227 E2.86854
G1 X149.296 Y99.529 E2.88972
G1 X149.227 Y100.17 E2.93475
G1 X149.149 Y100.753 E2.97583
G1 X149.102 Y101.055 E2.99718
G1 X148.982 Y101.747 E3.04624
G1 X148.956 Y101.886 E3.05611
G1 X148.852 Y102.403 E3.09295
G1 X148.813 Y102.584 E3.10588
G1 X148.637 Y103.324 E3.15901
G1 X148.495 Y103.863 E3.19794
G1 X148.417 Y104.135 E3.2177
G1 X148.204 Y104.833 E3.26867
G1 X147.999 Y105.449 E3.31402
G1 X147.927 Y105.65 E3.32893
G1 X147.683 Y106.305 E3.37775
G1 X147.451 Y106.879 E3.421
G1 X147.342 Y107.132 E3.44024
G1 X147.037 Y107.81 E3.49216
G1 X146.74 Y108.425 E3.53987
G1 X146.482 Y108.916 E3.57861
G1 X146.411 Y109.047 E3.58901
G1 X145.85 Y110.045 E3.66898
G1 X145.527 Y110.58 E3.71263
G1 X145.218 Y111.061 E3.75256
G1 X144.899 Y111.527 E3.792
G1 X144.077 Y112.641 E3.8887
G1 X143.963 Y112.79 E3.90181
G1 X143.585 Y113.266 E3.94426
G1 X143.414 Y113.47 E3.96285
G1 X142.975 Y113.969 E4.00927
G1 X142.761 Y114.205 E4.03153
G1 X142.314 Y114.68 E4.07708
G1 X141.991 Y115.005 E4.10909
G1 X141.515 Y115.468 E4.15547
G1 X141.408 Y115.57 E4.16579
G1 X141.023 Y115.924 E4.20232
G1 X140.887 Y116.044 E4.21499
G1 X140.45 Y116.419 E4.25521
G1 X140.324 Y116.524 E4.26667
G1 X139.62 Y117.091 E4.3298
G1 X139.473 Y117.205 E4.3428
G1 X139.051 Y117.521 E4.37962
G1 X138.559 Y117.873 E4.42187
G1 X138.145 Y118.155 E4.45686
G1 X137.698 Y118.445 E4.49408
G1 X137.572 Y118.525 E4.5045
G1 X137.081 Y118.824 E4.54466
G1 X136.954 Y118.899 E4.55496
G1 X136.385 Y119.224 E4.60073
G1 X135.801 Y119.538 E4.64704
G1 X135.648 Y119.617 E4.65907
G1 X135.156 Y119.86 E4.69739
G1 X134.995 Y119.936 E4.70983
G1 X134.087 Y120.347 E4.77944
G1 X133.623 Y120.543 E4.81462
G1 X133.458 Y120.609 E4.82704
G1 X132.698 Y120.896 E4.88378
G1 X132.118 Y121.094 E4.92659
G1 X130.939 Y121.455 E5.01271
G1 X130.372 Y121.609 E5.05375
G1 X129.706 Y121.769 E5.10159
G1 X128.982 Y121.921 E5.15326
G1 X128.352 Y122.037 E5.198
G1 X128.155 Y122.068 E5.21193
G1 X127.319 Y122.186 E5.2709
G1 X127.159 Y122.206 E5.28216
G1 X126.587 Y122.269 E5.32236
G1 X126.434 Y122.284 E5.33309
G1 X125.642 Y122.348 E5.38859
G1 X125.125 Y122.372 E5.42474
G1 X124.955 Y122.376 E5.43662
G1 X123.479 Y122.399 E5.53972
G1 X123.397 Y122.4 E5.54545
G1 X80.908 Y122.4 E8.51315
G1 X79.405 Y122.378 E8.61814
G1 X78.81 Y122.351 E8.65974
G1 X77.526 Y122.25 E8.7497
G1 X76.89 Y122.183 E8.79437
G1 X76.301 Y122.097 E8.83595
G1 X76.197 Y122.08 E8.84331
G1 X75.505 Y121.96 E8.89236
G1 X74.926 Y121.845 E8.93359
G1 X74.625 Y121.782 E8.95507
G1 X73.995 Y121.63 E9.00034
G1 X73.866 Y121.597 E9.00964
G1 X73.258 Y121.434 E9.0536
G1 X73.077 Y121.382 E9.06676
G1 X72.402 Y121.175 E9.11607
G1 X71.798 Y120.974 E9.16053
G1 X71.634 Y120.915 E9.17271
G1 X71.086 Y120.71 E9.21357
G1 X70.923 Y120.646 E9.2258
G1 X70.13 Y120.319 E9.28572
G1 X69.545 Y120.057 E9.33049
G1 X68.632 Y119.613 E9.4014
G1 X68.057 Y119.312 E9.44673
G1 X67.928 Y119.242 E9.45698
G1 X67.483 Y118.991 E9.49266
G1 X67.291 Y118.879 E9.50819
G1 X66.636 Y118.48 E9.56176
G1 X66.467 Y118.373 E9.57573
G1 X66.008 Y118.069 E9.61418
G1 X65.885 Y117.984 E9.62463
G1 X65.358 Y117.613 E9.66964
G1 X64.879 Y117.259 E9.71124
G1 X64.733 Y117.146 E9.72414
G1 X63.953 Y116.52 E9.79399
G1 X63.476 Y116.114 E9.83775
G1 X63.023 Y115.706 E9.88033
G1 X62.904 Y115.595 E9.89169
G1 X62.272 Y114.985 E9.95304
G1 X61.877 Y114.582 E9.99246
G1 X61.764 Y114.463 E10.00392
G1 X61.122 Y113.76 E10.07042
G1 X60.9 Y113.506 E10.09398
G1 X60.564 Y113.102 E10.13068
G1 X60.467 Y112.982 E10.14146
G1 X60.066 Y112.47 E10.18688
G1 X59.727 Y112.016 E10.22646
G1 X59.638 Y111.892 E10.23712
G1 X59.23 Y111.308 E10.28688
G1 X58.875 Y110.77 E10.3319
G1 X58.787 Y110.632 E10.34333
G1 X58.41 Y110.015 E10.39383
G1 X58.143 Y109.552 E10.43116
G1 X58.06 Y109.404 E10.44301
G1 X57.56 Y108.464 E10.51738
G1 X57.291 Y107.913 E10.56021
G1 X57.234 Y107.79 E10.56968
G1 X56.972 Y107.207 E10.61432
G1 X56.727 Y106.621 E10.65868
G1 X56.671 Y106.479 E10.66934
G1 X56.403 Y105.774 E10.72202
G1 X56.178 Y105.127 E10.76987
G1 X55.827 Y103.998 E10.85245
G1 X55.668 Y103.416 E10.89459
G1 X55.634 Y103.282 E10.90424
G1 X55.484 Y102.651 E10.94955
G1 X55.356 Y102.036 E10.99342
G1 X55.325 Y101.876 E11.0048
G1 X55.195 Y101.133 E11.05749
G1 X55.098 Y100.467 E11.1045
G1 X54.984 Y99.451 E11.17591
G1 X54.932 Y98.86 E11.21735
G1 X54.894 Y98.237 E11.26094
G1 X54.878 Y97.737 E11.29588
G1 X54.87 Y97.228 E11.33144
G1 X54.871 Y97.077 E11.34198
G1 X54.882 Y96.405 E11.38893
G1 X54.887 Y96.249 E11.39983
G1 X54.917 Y95.594 E11.44563
G1 X54.959 Y94.987 E11.48812
G1 X54.988 Y94.68 E11.50966
G1 X55.054 Y94.068 E11.55266
G1 X55.131 Y93.488 E11.59352
G1 X55.183 Y93.164 E11.61644
G1 X55.301 Y92.483 E11.66472
G1 X55.326 Y92.345 E11.67451
G1 X55.429 Y91.832 E11.71106
G1 X55.469 Y91.652 E11.72394
G1 X55.643 Y90.919 E11.77656
G1 X55.793 Y90.352 E11.81752
G1 X55.871 Y90.08 E11.83729
G1 X56.067 Y89.435 E11.88437
G1 X56.116 Y89.282 E11.89559
G1 X56.281 Y88.793 E11.93164
G1 X56.36 Y88.573 E11.94797
G1 X56.613 Y87.9 E11.99818
G1 X56.846 Y87.324 E12.04158
G1 X56.937 Y87.113 E12.05763
G1 X57.249 Y86.418 E12.11084
G1 X57.559 Y85.782 E12.16026
G1 X57.62 Y85.669 E12.16923
G1 X57.946 Y85.039 E12.21878
G1 X58.244 Y84.502 E12.26167
G1 X58.39 Y84.256 E12.28165
G1 X58.701 Y83.747 E12.32331
G1 X58.788 Y83.61 E12.33465
G1 X59.249 Y82.905 E12.39348
G1 X59.515 Y82.525 E12.42588
G1 X60.218 Y81.582 E12.50804
G1 X60.323 Y81.446 E12.52004
G1 X60.721 Y80.947 E12.56462
G1 X61.168 Y80.429 E12.61241
G1 X61.215 Y80.376 E12.61736
G1 X61.97 Y79.555 E12.69526
G1 X62.281 Y79.243 E12.72603
G1 X62.86 Y78.68 E12.78244
G1 X63.289 Y78.289 E12.82298
G1 X63.382 Y78.207 E12.83164
G1 X63.826 Y77.826 E12.8725
G1 X63.948 Y77.725 E12.88357
G1 X64.658 Y77.152 E12.94729
G1 X64.809 Y77.035 E12.96064
G1 X65.243 Y76.71 E12.99851
G1 X65.731 Y76.361 E13.04041
G1 X66.212 Y76.034 E13.08103
G1 X66.728 Y75.702 E13.12389
G1 X67.22 Y75.404 E13.16407
G1 X67.334 Y75.336 E13.17334
G1 X67.878 Y75.025 E13.21711
G1 X68.438 Y74.723 E13.26155
G1 X68.6 Y74.639 E13.27429
G1 X69.168 Y74.359 E13.31852
G1 X69.322 Y74.286 E13.33043
G1 X70.16 Y73.906 E13.39469
G1 X70.705 Y73.679 E13.43593
G1 X70.843 Y73.625 E13.44628
G1 X71.526 Y73.366 E13.4973
G1 X72.019 Y73.195 E13.53375
G1 X72.17 Y73.146 E13.54484
G1 X73.351 Y72.783 E13.63113
G1 X73.891 Y72.636 E13.67022
G1 X74.594 Y72.467 E13.72072
G1 X74.745 Y72.433 E13.73153
G1 X75.289 Y72.319 E13.77036
G1 X75.934 Y72.202 E13.81614
G1 X76.125 Y72.172 E13.82965
G1 X76.953 Y72.055 E13.88805
G1 X77.113 Y72.035 E13.89931
G1 X77.72 Y71.968 E13.94197
G1 X78.353 Y71.919 E13.98631
G1 X79.541 Y71.864 E14.06938
G1 X79.701 Y71.859 E14.08056
G1 X80.834 Y71.841 E14.15971
G1 X80.918 Y71.84 E14.16557
G1 X123.334 Y71.84 E17.12817
G1 X123.418 Y71.841 E17.13404
G1 X124.87 Y71.864 E17.23547
M205 X10 Y10
G0 F5625 X124.878 Y71.304
M205 X8 Y8
G1 F2400 X125.518 Y71.33 E17.28021
G1 X125.704 Y71.341 E17.29322
G1 X126.53 Y71.404 E17.35108
G1 X127.064 Y71.459 E17.38858
G1 X127.247 Y71.481 E17.40145
G1 X128.199 Y71.614 E17.46859
G1 X128.876 Y71.729 E17.51656
G1 X129.025 Y71.757 E17.52715
G1 X129.517 Y71.856 E17.5622
G1 X129.773 Y71.912 E17.5805
G1 X130.432 Y72.07 E17.62784
G1 X130.591 Y72.109 E17.63927
G1 X131.162 Y72.263 E17.68058
G1 X131.348 Y72.317 E17.69411
G1 X132.032 Y72.526 E17.74406
G1 X132.655 Y72.734 E17.78994
G1 X132.87 Y72.811 E17.80589
G1 X133.396 Y73.008 E17.84512
G1 X133.578 Y73.08 E17.85879
G1 X134.379 Y73.411 E17.91932
G1 X134.953 Y73.667 E17.96322
G1 X135.915 Y74.135 E18.03794
G1 X136.475 Y74.427 E18.08206
G1 X136.621 Y74.507 E18.09368
G1 X137.091 Y74.772 E18.13137
G1 X137.263 Y74.873 E18.1453
G1 X137.929 Y75.279 E18.19978
G1 X138.355 Y75.551 E18.23508
G1 X138.702 Y75.786 E18.26436
G1 X139.246 Y76.169 E18.31082
G1 X139.731 Y76.528 E18.35297
G1 X139.895 Y76.654 E18.36742
G1 X140.669 Y77.274 E18.43668
G1 X141.173 Y77.703 E18.48291
G1 X141.646 Y78.13 E18.52742
G1 X141.778 Y78.253 E18.54002
G1 X142.392 Y78.846 E18.59964
G1 X142.763 Y79.224 E18.63664
G1 X142.885 Y79.354 E18.64909
G1 X143.616 Y80.154 E18.72478
G1 X143.801 Y80.365 E18.74438
G1 X144.134 Y80.764 E18.78068
G1 X144.243 Y80.899 E18.7928
G1 X144.656 Y81.425 E18.83951
G1 X144.997 Y81.881 E18.87928
G1 X145.52 Y82.627 E18.94291
G1 X145.87 Y83.157 E18.98728
G1 X145.963 Y83.304 E18.99943
G1 X146.346 Y83.931 E19.05074
G1 X146.633 Y84.427 E19.09077
G1 X146.717 Y84.579 E19.1029
G1 X147.203 Y85.49 E19.17502
G1 X147.49 Y86.074 E19.22047
G1 X147.556 Y86.217 E19.23147
G1 X147.819 Y86.802 E19.27627
G1 X148.064 Y87.387 E19.32057
G1 X148.126 Y87.546 E19.33249
G1 X148.411 Y88.297 E19.38859
G1 X148.627 Y88.918 E19.43451
G1 X148.993 Y90.094 E19.52054
G1 X149.143 Y90.633 E19.55962
G1 X149.184 Y90.798 E19.57149
G1 X149.341 Y91.46 E19.61901
G1 X149.472 Y92.075 E19.66293
G1 X149.506 Y92.259 E19.676
G1 X149.637 Y93.006 E19.72897
G1 X149.737 Y93.691 E19.77732
G1 X149.853 Y94.716 E19.84937
G1 X149.897 Y95.224 E19.88499
G1 X149.935 Y95.751 E19.92189
G1 X149.944 Y95.924 E19.93399
G1 X149.962 Y96.455 E19.9711
G1 X149.971 Y97.051 E20.01274
G1 X149.97 Y97.218 E20.0244
G1 X149.961 Y97.783 E20.06387
G1 X149.956 Y97.95 E20.07554
G1 X149.926 Y98.623 E20.12259
G1 X149.882 Y99.268 E20.16775
G1 X149.852 Y99.589 E20.19026
G1 X149.783 Y100.23 E20.23529
G1 X149.704 Y100.829 E20.2775
G1 X149.654 Y101.151 E20.30026
G1 X149.534 Y101.843 E20.34931
G1 X149.505 Y101.997 E20.36026
G1 X149.401 Y102.514 E20.39709
G1 X149.358 Y102.713 E20.41131
G1 X149.182 Y103.453 E20.46444
G1 X149.036 Y104.008 E20.50452
G1 X148.953 Y104.299 E20.52566
G1 X148.74 Y104.997 E20.57663
G1 X148.529 Y105.628 E20.6231
G1 X148.452 Y105.846 E20.63925
G1 X148.208 Y106.501 E20.68807
G1 X147.97 Y107.09 E20.73244
G1 X147.853 Y107.362 E20.75312
G1 X147.548 Y108.04 E20.80505
G1 X147.331 Y108.496 E20.84032
G1 X147.236 Y108.685 E20.8551
G1 X146.978 Y109.176 E20.89384
G1 X146.899 Y109.322 E20.90543
G1 X146.338 Y110.32 E20.9854
G1 X146.005 Y110.872 E21.03042
G1 X145.688 Y111.366 E21.07142
G1 X145.349 Y111.859 E21.11321
G1 X144.527 Y112.973 E21.20991
G1 X144.401 Y113.138 E21.22441
G1 X144.023 Y113.614 E21.26686
G1 X143.835 Y113.839 E21.28734
G1 X143.396 Y114.338 E21.33376
G1 X143.169 Y114.589 E21.3574
G1 X142.722 Y115.064 E21.40296
G1 X142.382 Y115.406 E21.43664
G1 X141.906 Y115.869 E21.48302
G1 X141.787 Y115.982 E21.49449
G1 X141.402 Y116.336 E21.53102
G1 X141.252 Y116.469 E21.54502
G1 X140.815 Y116.844 E21.58524
G1 X140.675 Y116.96 E21.59794
G1 X139.971 Y117.527 E21.66107
G1 X139.808 Y117.654 E21.67551
G1 X139.386 Y117.97 E21.71233
G1 X138.883 Y118.33 E21.75553
G1 X138.458 Y118.619 E21.79143
G1 X138.003 Y118.915 E21.82934
G1 X137.863 Y119.003 E21.84089
G1 X137.372 Y119.302 E21.88105
G1 X137.231 Y119.385 E21.89248
G1 X136.662 Y119.71 E21.93824
G1 X136.521 Y119.788 E21.9495
G1 X136.065 Y120.032 E21.98562
G1 X135.896 Y120.119 E21.9989
G1 X135.404 Y120.362 E22.03722
G1 X135.226 Y120.446 E22.05097
G1 X134.318 Y120.857 E22.12059
G1 X133.838 Y121.06 E22.15699
G1 X133.656 Y121.132 E22.17066
G1 X132.896 Y121.419 E22.2274
G1 X132.282 Y121.629 E22.27273
G1 X131.103 Y121.99 E22.35885
G1 X130.503 Y122.153 E22.40227
G1 X129.837 Y122.313 E22.45012
G1 X129.663 Y122.351 E22.46256
G1 X129.096 Y122.469 E22.50301
G1 X128.451 Y122.588 E22.54882
G1 X128.233 Y122.623 E22.56424
G1 X127.397 Y122.741 E22.62321
G1 X127.22 Y122.763 E22.63567
G1 X126.648 Y122.826 E22.67586
G1 X126.479 Y122.842 E22.68772
G1 X125.687 Y122.906 E22.74322
G1 X125.138 Y122.932 E22.78161
G1 X124.964 Y122.936 E22.79376
G1 X123.488 Y122.959 E22.89687
G1 X123.397 Y122.96 E22.90322
G1 X80.908 Y122.96 E25.87092
G1 X79.397 Y122.938 E25.97647
G1 X78.766 Y122.909 E26.02059
G1 X77.482 Y122.808 E26.11055
G1 X76.829 Y122.739 E26.15641
G1 X76.217 Y122.651 E26.1996
G1 X76.101 Y122.632 E26.20781
G1 X75.409 Y122.512 E26.25687
G1 X74.835 Y122.398 E26.29774
G1 X74.493 Y122.326 E26.32215
G1 X73.863 Y122.174 E26.36742
G1 X73.721 Y122.138 E26.37765
G1 X73.113 Y121.975 E26.42161
G1 X72.913 Y121.917 E26.43616
G1 X72.238 Y121.71 E26.48547
G1 X71.619 Y121.504 E26.53104
G1 X71.438 Y121.44 E26.54445
G1 X70.89 Y121.235 E26.58531
G1 X70.71 Y121.164 E26.59883
G1 X69.917 Y120.837 E26.65874
G1 X69.3 Y120.561 E26.70595
G1 X68.387 Y120.117 E26.77686
G1 X67.795 Y119.808 E26.82351
G1 X67.653 Y119.73 E26.83482
G1 X67.175 Y119.46 E26.87317
G1 X67 Y119.357 E26.88735
G1 X66.345 Y118.958 E26.94092
G1 X66.158 Y118.84 E26.95636
G1 X65.699 Y118.536 E26.99482
G1 X65.562 Y118.442 E27.00642
G1 X65.035 Y118.071 E27.05144
G1 X64.544 Y117.708 E27.09409
G1 X64.383 Y117.583 E27.10832
G1 X63.603 Y116.957 E27.17818
G1 X63.111 Y116.538 E27.22332
G1 X62.646 Y116.121 E27.26694
G1 X62.515 Y115.998 E27.27949
G1 X61.883 Y115.388 E27.34084
G1 X61.475 Y114.972 E27.38154
G1 X61.351 Y114.84 E27.39419
G1 X60.709 Y114.137 E27.46069
G1 X60.47 Y113.864 E27.48603
G1 X60.134 Y113.46 E27.52273
G1 X60.026 Y113.327 E27.5347
G1 X59.625 Y112.815 E27.58012
G1 X59.278 Y112.35 E27.62065
G1 X59.179 Y112.213 E27.63245
G1 X58.771 Y111.629 E27.68221
G1 X58.406 Y111.077 E27.72843
G1 X58.31 Y110.924 E27.74105
G1 X57.933 Y110.307 E27.79155
G1 X57.657 Y109.831 E27.82998
G1 X57.566 Y109.667 E27.84308
G1 X57.066 Y108.727 E27.91745
